X:1
T:Wandermazurka
C:Jens Wollschlger
O:Germany
M:3/4
L:1/8
K:G
GA|:B2dBGB|ceABce|dBGABd|cAF2GA|B2dBGB|ceABce|dBGBAF|G2G2GA:|
K:Gmin
|:B2dBGB|AFcAFA|GFGBAG|^F2D2GA|B2dBGB|AFcAFA|GFGBA^F|G2G2GA:|
